build/img/icon-figma.svg

<svg width="46" height="70" viewBox="0 0 46 70" fill="none" xmlns="http://www.w3.org/2000/svg">
  <path d="M11.6137 69.3639C17.8915 69.3639 22.9835 64.1885 22.9835 57.8079V46.252H11.6137C5.33589 46.252 0.243896 51.4273 0.243896 57.8079C0.243896 64.1885 5.33589 69.3639 11.6137 69.3639Z" fill="#0ACF83"/>
  <path d="M0.243896 34.6829C0.243896 28.3023 5.33589 23.127 11.6137 23.127H22.9835V46.2531H11.6137C5.33589 46.2389 0.243896 41.0635 0.243896 34.6829Z" fill="#A259FF"/>
  <path d="M0.243896 11.556C0.243896 5.17537 5.33589 0 11.6137 0H22.9835V23.1261H11.6137C5.33589 23.1261 0.243896 17.9366 0.243896 11.556Z" fill="#F24E1E"/>
  <path d="M22.9973 0H34.3671C40.6449 0 45.7369 5.17537 45.7369 11.556C45.7369 17.9366 40.6449 23.1119 34.3671 23.1119H22.9973V0Z" fill="#FF7262"/>
  <path d="M45.7369 34.6829C45.7369 41.0635 40.6449 46.2389 34.3671 46.2389C28.0893 46.2389 22.9973 41.0635 22.9973 34.6829C22.9973 28.3023 28.0893 23.127 34.3671 23.127C40.6449 23.127 45.7369 28.3023 45.7369 34.6829Z" fill="#1ABCFE"/>
</svg>

<svg width="46" height="70" fill="none" xmlns="http://www.w3.org/2000/svg"><path d="M11.614 69.364c6.277 0 11.37-5.175 11.37-11.556V46.252h-11.37c-6.278 0-11.37 5.175-11.37 11.556 0 6.38 5.092 11.556 11.37 11.556z" fill="#0ACF83"/><path d="M.244 34.683c0-6.38 5.092-11.556 11.37-11.556h11.37v23.126h-11.37C5.336 46.24.244 41.063.244 34.683z" fill="#A259FF"/><path d="M.244 11.556C.244 5.176 5.336 0 11.614 0h11.37v23.126h-11.37c-6.278 0-11.37-5.19-11.37-11.57z" fill="#F24E1E"/><path d="M22.997 0h11.37c6.278 0 11.37 5.175 11.37 11.556 0 6.38-5.092 11.556-11.37 11.556h-11.37V0z" fill="#FF7262"/><path d="M45.737 34.683c0 6.38-5.092 11.556-11.37 11.556s-11.37-5.175-11.37-11.556c0-6.38 5.092-11.556 11.37-11.556s11.37 5.175 11.37 11.556z" fill="#1ABCFE"/></svg>
